assets/icons/copy-filled.svg

<svg height="24" width="24" xmlns="http://www.w3.org/2000/svg"><path style="fill:gray;stroke-width:.5;stroke-linecap:round;fill-opacity:1" d="M7 6v14h12V6H7zm3 3h6v1h-6V9zm0 2h6v1h-6v-1zm0 2h3v1h-3v-1z"/><path style="fill:gray;stroke-width:.5;stroke-linecap:round;fill-opacity:1" d="M5 4v14h1V5h11V4z"/></svg>

<?xml version="1.0" encoding="UTF-8" standalone="no"?>
<svg
   viewBox="0 0 24 24"
   height="24"
   width="24"
   version="1.1"
   id="svg4"
   sodipodi:docname="copy-filled.svg"
   inkscape:version="1.2 (1:1.2.1+202207142221+cd75a1ee6d)"
   xmlns:inkscape="http://www.inkscape.org/namespaces/inkscape"
   xmlns:sodipodi="http://sodipodi.sourceforge.net/DTD/sodipodi-0.dtd"
   xmlns="http://www.w3.org/2000/svg"
   xmlns:svg="http://www.w3.org/2000/svg">
  <defs
     id="defs8" />
  <sodipodi:namedview
     id="namedview6"
     pagecolor="#ffffff"
     bordercolor="#666666"
     borderopacity="1.0"
     inkscape:pageshadow="2"
     inkscape:pageopacity="0.0"
     inkscape:pagecheckerboard="0"
     showgrid="true"
     inkscape:zoom="28"
     inkscape:cx="9.1785714"
     inkscape:cy="10.142857"
     inkscape:window-width="1920"
     inkscape:window-height="1043"
     inkscape:window-x="0"
     inkscape:window-y="0"
     inkscape:window-maximized="1"
     inkscape:current-layer="svg4"
     inkscape:showpageshadow="2"
     inkscape:deskcolor="#d1d1d1">
    <inkscape:grid
       type="xygrid"
       id="grid825" />
  </sodipodi:namedview>
  <path
     id="path1737"
     style="fill:#808080;fill-rule:evenodd;stroke-width:0.5;stroke-linecap:round;fill-opacity:1"
     d="M 7 6 L 7 20 L 19 20 L 19 6 L 18 6 L 17 6 L 16 6 L 15 6 L 7 6 z M 10 9 L 16 9 L 16 10 L 10 10 L 10 9 z M 10 11 L 16 11 L 16 12 L 10 12 L 10 11 z M 10 13 L 13 13 L 13 14 L 10 14 L 10 13 z " />
  <path
     style="fill:#808080;fill-rule:evenodd;stroke-width:0.5;stroke-linecap:round;fill-opacity:1"
     d="m 5,4 v 14 h 1 v -1 -11 -1 h 9 1 1 v -1 z"
     id="rect844" />
</svg>
